X: 08021
T: CHRIS'S REEL
C: Bob McQuillen 14 Nov 90
B: Bob's Note Book 8 #21
%R: reel
Z: 2021 John Chambers <jc:trillian.mit.edu>
M: C
L: 1/8
K: G
de \
| gedB cedc | BdAd BGDG | EGDG Bdgd | egdB Adef |
| gedB cedc | BdAd BGDG | EGDG Bdge | dBAB G2 :|
|: GA \
| BGAG EGDG | BdcA BGAc | BGAG EGDG | BGAB cedc |
| BGAG EGDG | Bdef gdBd | cAce dBdg | fgaf g2 :|
%%begintext align
%% Chris Peters is
%% from Spokane WA. She is another stalwart Lady
%% of the Lake which is where I met her. It was fun
%% to have her visit us back East for a while. Hope it
%% happens again, Chris! (P.S.- She's a great dancer!)
%%endtext

%%sep 1 1 500

%%sep 1 1 500

